; generated by PrusaSlicer 2.4.0+linux-x64 on 2022-02-16 at 14:32:11 UTC

; 

; external perimeters extrusion width = 0.60mm
; perimeters extrusion width = 0.50mm
; infill extrusion width = 0.50mm
; solid infill extrusion width = 0.50mm
; top infill extrusion width = 0.45mm
; first layer extrusion width = 0.42mm

M73 P0 R100
M73 Q0 S100
M201 X1000 Y1000 Z200 E5000 ; sets maximum accelerations, mm/sec^2
M203 X200 Y200 Z12 E120 ; sets maximum feedrates, mm/sec
M204 P1250 R1250 T1250 ; sets acceleration (P, T) and retract acceleration (R), mm/sec^2
M205 X8.00 Y8.00 Z0.40 E4.50 ; sets the jerk limits, mm/sec
M205 S0 T0 ; sets the minimum extruding and travel feed rate, mm/sec
M107
;TYPE:Custom
M862.3 P "MK3" ; printer model check
M862.1 P0.4 ; nozzle diameter check
M115 U3.10.0 ; tell printer latest fw version
G90 ; use absolute coordinates
M83 ; extruder relative mode
M104 S240 ; set extruder temp
M140 S85 ; set bed temp
M190 S85 ; wait for bed temp
M109 S240 ; wait for extruder temp
G28 W ; home all without mesh bed level
G80 ; mesh bed leveling
G1 Z0.2 F720
G1 Y-3 F1000 ; go outside print area
G92 E0
G1 X60 E9 F1000 ; intro line
G1 X100 E12.5 F1000 ; intro line
G92 E0
M221 S95

; Don't change E values below. Excessive value can damage the printer.

M907 E538 ; set extruder motor current
G21 ; set units to millimeters
G90 ; use absolute coordinates
M83 ; use relative distances for extrusion
M900 K0.08 ; Filament gcode LA 1.5
M900 K45 ; Filament gcode LA 1.0
M107
;LAYER_CHANGE
;Z:0.2
;HEIGHT:0.2
;BEFORE_LAYER_CHANGE
G92 E0.0
;0.2


M73 P0 R99
G1 E-1 F2100
G1 Z.2 F720
;AFTER_LAYER_CHANGE
;0.2
G1 Z.4
G1 X41.95 Y74.859 F10800
G1 Z.2 F720
G1 E1 F2100
M204 S800
;TYPE:Skirt/Brim
;WIDTH:0.42
G1 F1200
G1 X97.031 Y51.869 E1.87143
G1 X97.619 Y51.708 E.01913
G1 X98.4 Y51.623 E.02463
G1 X150.927 Y51.645 E1.64694
G1 X151.951 Y51.863 E.03283
G1 X208.05 Y74.859 E1.90101
G1 X208.834 Y75.371 E.02936
G1 X209.579 Y76.318 E.03778
G1 X209.877 Y77.5 E.03821
G1 X209.877 Y104.5 E.84657
G1 X209.579 Y105.679 E.03814
G1 X209.003 Y106.487 E.03113
G1 X153.521 Y157.199 E2.35677
G1 X152.422 Y157.939 E.04154
G1 X151.391 Y158.289 E.03415
G1 X150.6 Y158.377 E.02494
G1 X98.4 Y158.377 E1.63669
G1 X97.619 Y158.292 E.02463
G1 X96.578 Y157.939 E.03447
G1 X95.463 Y157.184 E.04221
G1 X40.982 Y106.475 E2.33365
G1 X40.421 Y105.681 E.03047
G1 X40.124 Y104.502 E.03813
G1 X40.123 Y77.5 E.84663
G1 X40.421 Y76.319 E.03821
G1 X41.166 Y75.371 E.03778
G1 X41.899 Y74.892 E.02747
M204 S1000
; printing object camera_base_v2.stl id:0 copy 0
;WIPE_START
G1 F8640
G1 X45.696 Y73.306 E-.95
;WIPE_END
G1 E-.05 F2100
G1 Z.4 F720
G1 X132.998 Y112.034 F10800
G1 Z.2 F720
G1 E1 F2100
M204 S800
;TYPE:Perimeter
G1 F1200
G1 X133.044 Y111.943 E.00322
G1 X133.443 Y111.544 E.01767
G1 X133.943 Y111.29 E.0176
G1 X134.5 Y111.2 E.01769
G1 X135.057 Y111.29 E.01769
G1 X135.557 Y111.544 E.0176
G1 X135.956 Y111.943 E.01767
G1 X136.21 Y112.443 E.0176
G1 X136.3 Y113 E.01769
G1 X136.21 Y113.557 E.01769
G1 X135.956 Y114.057 E.0176
G1 X135.557 Y114.456 E.01767
G1 X135.057 Y114.71 E.0176
G1 X134.5 Y114.8 E.01769
G1 X133.943 Y114.71 E.01769
G1 X133.443 Y114.456 E.0176
G1 X133.044 Y114.057 E.01767
G1 X132.789 Y113.556 E.01764
G1 X132.701 Y113 E.01765
G1 X132.789 Y112.444 E.01765
G1 X132.97 Y112.088 E.01253
M204 S1000
G1 X133.152 Y112.562 F10800
M204 S800
;TYPE:External perimeter
G1 F1200
G1 X133.353 Y112.167 E.01389
G1 X133.667 Y111.853 E.01392
G1 X134.061 Y111.652 E.01387
G1 X134.5 Y111.582 E.01393
G1 X134.939 Y111.652 E.01393
G1 X135.333 Y111.853 E.01387
G1 X135.647 Y112.167 E.01392
G1 X135.848 Y112.561 E.01387
G1 X135.918 Y113 E.01393
G1 X135.848 Y113.439 E.01393
G1 X135.647 Y113.833 E.01387
G1 X135.333 Y114.147 E.01392
G1 X134.939 Y114.348 E.01387
G1 X134.5 Y114.418 E.01393
G1 X134.061 Y114.348 E.01393
G1 X133.667 Y114.147 E.01387
G1 X133.353 Y113.833 E.01392
G1 X133.152 Y113.438 E.01389
G1 X133.083 Y113 E.01391
G1 X133.143 Y112.621 E.01203
M204 S1000
G1 X132.884 Y112.265 F10800
;WIPE_START
G1 F8640
G1 X133.353 Y112.167 E-.11555
G1 X133.667 Y111.853 E-.10252
G1 X134.061 Y111.652 E-.10214
G1 X134.5 Y111.582 E-.10261
G1 X134.939 Y111.652 E-.10261
G1 X135.333 Y111.853 E-.10214
G1 X135.647 Y112.167 E-.10252
G1 X135.848 Y112.561 E-.10214
G1 X135.918 Y113 E-.10261
G1 X135.908 Y113.065 E-.01517
;WIPE_END
G1 E-.05 F2100
G1 Z.4 F720
G1 X118.227 Y113.455 F10800
G1 Z.2 F720
G1 E1 F2100
M204 S800
;TYPE:Perimeter
G1 F1200
G1 X118.21 Y113.557 E.00324
G1 X117.956 Y114.057 E.0176
G1 X117.557 Y114.456 E.01767
G1 X117.057 Y114.71 E.0176
G1 X116.5 Y114.8 E.01769
G1 X115.943 Y114.71 E.01769
G1 X115.443 Y114.456 E.0176
G1 X115.044 Y114.057 E.01767
G1 X114.789 Y113.556 E.01764
G1 X114.701 Y113 E.01765
G1 X114.789 Y112.444 E.01765
G1 X115.044 Y111.943 E.01764
G1 X115.443 Y111.544 E.01767
G1 X115.943 Y111.29 E.0176
G1 X116.5 Y111.2 E.01769
G1 X117.057 Y111.29 E.01769
G1 X117.557 Y111.544 E.0176
G1 X117.956 Y111.943 E.01767
G1 X118.21 Y112.443 E.0176
G1 X118.3 Y113 E.01769
G1 X118.236 Y113.396 E.01257
M204 S1000
G1 X117.918 Y113 F10800
M204 S800
;TYPE:External perimeter
G1 F1200
G1 X117.848 Y113.439 E.01393
G1 X117.647 Y113.833 E.01387
G1 X117.333 Y114.147 E.01392
G1 X116.939 Y114.348 E.01387
G1 X116.5 Y114.418 E.01393
G1 X116.061 Y114.348 E.01393
G1 X115.667 Y114.147 E.01387
G1 X115.353 Y113.833 E.01392
G1 X115.152 Y113.438 E.01389
G1 X115.083 Y113 E.01391
G1 X115.152 Y112.562 E.01391
G1 X115.353 Y112.167 E.01389
G1 X115.667 Y111.853 E.01392
G1 X116.061 Y111.652 E.01387
G1 X116.5 Y111.582 E.01393
G1 X116.939 Y111.652 E.01393
G1 X117.333 Y111.853 E.01387
G1 X117.647 Y112.167 E.01392
G1 X117.848 Y112.561 E.01387
G1 X117.909 Y112.941 E.01205
M204 S1000
G1 X118.264 Y113.201 F10800
;WIPE_START
G1 F8640
G1 X117.848 Y113.439 E-.11584
G1 X117.647 Y113.833 E-.10214
G1 X117.333 Y114.147 E-.10253
G1 X116.939 Y114.348 E-.10214
G1 X116.5 Y114.418 E-.10261
G1 X116.061 Y114.348 E-.10261
G1 X115.667 Y114.147 E-.10214
G1 X115.353 Y113.833 E-.10253
G1 X115.152 Y113.438 E-.10229
G1 X115.142 Y113.373 E-.01519
;WIPE_END
G1 E-.05 F2100
G1 Z.4 F720
G1 X108.738 Y142.619 F10800
G1 Z.2 F720
M73 Q0 S99
G1 E1 F2100
M204 S800
;TYPE:Perimeter
G1 F1200
G1 X109.527 Y143.021 E.02778
G1 X110.479 Y143.973 E.0422
G1 X111.089 Y145.172 E.04218
G1 X111.3 Y146.5 E.04217
G1 X111.089 Y147.828 E.04217
G1 X110.479 Y149.027 E.04218
G1 X109.527 Y149.979 E.0422
G1 X108.328 Y150.589 E.04218
G1 X107 Y150.8 E.04217
G1 X105.672 Y150.589 E.04217
G1 X104.473 Y149.979 E.04218
G1 X103.521 Y149.027 E.0422
G1 X102.911 Y147.828 E.04219
G1 X102.701 Y146.5 E.04215
G1 X102.911 Y145.172 E.04215
G1 X103.521 Y143.973 E.04219
G1 X104.473 Y143.021 E.0422
G1 X105.672 Y142.411 E.04219
G1 X107 Y142.201 E.04215
G1 X108.328 Y142.411 E.04215
G1 X108.684 Y142.592 E.01253
M204 S1000
G1 X108.21 Y142.774 F10800
M204 S800
;TYPE:External perimeter
G1 F1200
G1 X109.303 Y143.33 E.03844
G1 X110.17 Y144.197 E.03845
G1 X110.726 Y145.29 E.03844
G1 X110.918 Y146.5 E.03842
G1 X110.726 Y147.71 E.03842
G1 X110.17 Y148.803 E.03844
G1 X109.303 Y149.67 E.03845
G1 X108.21 Y150.226 E.03844
G1 X107 Y150.418 E.03842
G1 X105.79 Y150.226 E.03842
G1 X104.697 Y149.67 E.03844
G1 X103.83 Y148.803 E.03845
G1 X103.274 Y147.71 E.03844
G1 X103.083 Y146.5 E.03841
G1 X103.274 Y145.29 E.03841
G1 X103.83 Y144.197 E.03844
G1 X104.697 Y143.33 E.03845
G1 X105.79 Y142.774 E.03844
G1 X107 Y142.583 E.03841
G1 X108.151 Y142.765 E.03653
M204 S1000
G1 X108.507 Y142.506 F10800
;WIPE_START
G1 F8640
G1 X109.303 Y143.33 E-.29632
G1 X110.17 Y144.197 E-.28313
G1 X110.726 Y145.29 E-.28307
G1 X110.785 Y145.664 E-.08749
;WIPE_END
G1 E-.05 F2100
G1 Z.4 F720
G1 X114.836 Y135.647 F10800
G1 Z.2 F720
G1 E1 F2100
M204 S800
;TYPE:Perimeter
G1 F1200
G1 X114.789 Y135.556 E.00322
G1 X114.701 Y135 E.01765
G1 X114.789 Y134.444 E.01765
G1 X115.044 Y133.943 E.01764
G1 X115.443 Y133.544 E.01767
G1 X115.944 Y133.289 E.01764
G1 X116.5 Y133.201 E.01765
G1 X117.056 Y133.289 E.01765
G1 X117.557 Y133.544 E.01764
G1 X117.956 Y133.943 E.01767
G1 X118.21 Y134.443 E.0176
G1 X118.3 Y135 E.01769
G1 X118.21 Y135.557 E.01769
G1 X117.956 Y136.057 E.0176
G1 X117.557 Y136.456 E.01767
G1 X117.057 Y136.71 E.0176
G1 X116.5 Y136.8 E.01769
G1 X115.943 Y136.71 E.01769
G1 X115.443 Y136.456 E.0176
G1 X115.044 Y136.057 E.01767
G1 X114.863 Y135.701 E.01254
M204 S1000
G1 X115.353 Y135.833 F10800
M204 S800
;TYPE:External perimeter
G1 F1200
G1 X115.152 Y135.438 E.01389
G1 X115.083 Y135 E.01391
G1 X115.152 Y134.562 E.01391
G1 X115.353 Y134.167 E.01389
G1 X115.667 Y133.853 E.01392
G1 X116.062 Y133.652 E.01389
G1 X116.5 Y133.583 E.01391
G1 X116.938 Y133.652 E.01391
G1 X117.333 Y133.853 E.01389
G1 X117.647 Y134.167 E.01392
G1 X117.848 Y134.561 E.01387
G1 X117.918 Y135 E.01393
G1 X117.848 Y135.439 E.01393
G1 X117.647 Y135.833 E.01387
G1 X117.333 Y136.147 E.01392
G1 X116.939 Y136.348 E.01387
G1 X116.5 Y136.418 E.01393
G1 X116.061 Y136.348 E.01393
G1 X115.667 Y136.147 E.01387
G1 X115.396 Y135.875 E.01204
M204 S1000
G1 X114.955 Y135.875 F10800
;WIPE_START
G1 F8640
G1 X115.152 Y135.438 E-.11554
G1 X115.083 Y135 E-.10242
G1 X115.152 Y134.562 E-.10242
G1 X115.353 Y134.167 E-.10229
G1 X115.667 Y133.853 E-.10253
G1 X116.062 Y133.652 E-.10229
G1 X116.5 Y133.583 E-.10242
G1 X116.938 Y133.652 E-.10242
G1 X117.333 Y133.853 E-.10229
G1 X117.38 Y133.9 E-.01538
;WIPE_END
G1 E-.05 F2100
G1 Z.4 F720
G1 X132.754 Y134.664 F10800
G1 Z.2 F720
G1 E1 F2100
M204 S800
;TYPE:Perimeter
G1 F1200
G1 X132.789 Y134.444 E.00698
G1 X133.044 Y133.943 E.01764
G1 X133.443 Y133.544 E.01767
G1 X133.944 Y133.289 E.01764
G1 X134.5 Y133.201 E.01765
G1 X135.056 Y133.289 E.01765
G1 X135.557 Y133.544 E.01764
G1 X135.956 Y133.943 E.01767
G1 X136.21 Y134.443 E.0176
G1 X136.3 Y135 E.01769
G1 X136.21 Y135.557 E.01769
G1 X135.956 Y136.057 E.0176
G1 X135.557 Y136.456 E.01767
G1 X135.057 Y136.71 E.0176
G1 X134.5 Y136.8 E.01769
G1 X133.943 Y136.71 E.01769
G1 X133.443 Y136.456 E.0176
G1 X133.044 Y136.057 E.01767
G1 X132.789 Y135.556 E.01764
G1 X132.701 Y135 E.01765
G1 X132.745 Y134.723 E.00879
M204 S1000
G1 X133.083 Y135 F10800
M204 S800
;TYPE:External perimeter
G1 F1200
G1 X133.152 Y134.562 E.01391
G1 X133.353 Y134.167 E.01389
G1 X133.667 Y133.853 E.01392
G1 X134.062 Y133.652 E.01389
G1 X134.5 Y133.583 E.01391
G1 X134.938 Y133.652 E.01391
G1 X135.333 Y133.853 E.01389
G1 X135.647 Y134.167 E.01392
G1 X135.848 Y134.561 E.01387
G1 X135.918 Y135 E.01393
G1 X135.848 Y135.439 E.01393
G1 X135.647 Y135.833 E.01387
G1 X135.333 Y136.147 E.01392
G1 X134.939 Y136.348 E.01387
G1 X134.5 Y136.418 E.01393
G1 X134.061 Y136.348 E.01393
G1 X133.667 Y136.147 E.01387
G1 X133.353 Y135.833 E.01392
G1 X133.152 Y135.438 E.01389
G1 X133.092 Y135.059 E.01203
M204 S1000
G1 X132.736 Y134.8 F10800
;WIPE_START
G1 F8640
G1 X133.152 Y134.562 E-.11568
G1 X133.353 Y134.167 E-.10229
G1 X133.667 Y133.853 E-.10252
G1 X134.062 Y133.652 E-.10229
G1 X134.5 Y133.583 E-.10242
G1 X134.938 Y133.652 E-.10242
G1 X135.333 Y133.853 E-.10229
G1 X135.647 Y134.167 E-.10252
G1 X135.848 Y134.561 E-.10214
G1 X135.858 Y134.627 E-.01543
;WIPE_END
G1 E-.05 F2100
G1 Z.4 F720
G1 X141.776 Y142.867 F10800
G1 Z.2 F720
G1 E1 F2100
M204 S800
;TYPE:Perimeter
G1 F1200
G1 X142.672 Y142.411 E.03153
G1 X144 Y142.201 E.04215
G1 X145.328 Y142.411 E.04215
G1 X146.527 Y143.021 E.04219
G1 X147.479 Y143.973 E.0422
G1 X148.089 Y145.172 E.04218
G1 X148.3 Y146.5 E.04217
G1 X148.089 Y147.828 E.04217
G1 X147.479 Y149.027 E.04218
G1 X146.527 Y149.979 E.0422
G1 X145.328 Y150.589 E.04218
G1 X144 Y150.8 E.04217
G1 X142.672 Y150.589 E.04217
G1 X141.473 Y149.979 E.04218
G1 X140.521 Y149.027 E.0422
G1 X139.911 Y147.828 E.04219
G1 X139.701 Y146.5 E.04215
G1 X139.911 Y145.172 E.04215
G1 X140.521 Y143.973 E.04219
G1 X141.473 Y143.021 E.0422
G1 X141.722 Y142.894 E.00878
M204 S1000
G1 X141.697 Y143.33 F10800
M204 S800
;TYPE:External perimeter
G1 F1200
G1 X142.79 Y142.774 E.03844
G1 X144 Y142.583 E.03841
G1 X145.21 Y142.774 E.03841
G1 X146.303 Y143.33 E.03844
G1 X147.17 Y144.197 E.03845
G1 X147.726 Y145.29 E.03844
G1 X147.918 Y146.5 E.03842
G1 X147.726 Y147.71 E.03842
G1 X147.17 Y148.803 E.03844
G1 X146.303 Y149.67 E.03845
G1 X145.21 Y150.226 E.03844
G1 X144 Y150.418 E.03842
G1 X142.79 Y150.226 E.03842
G1 X141.697 Y149.67 E.03844
G1 X140.83 Y148.803 E.03845
G1 X140.274 Y147.71 E.03844
G1 X140.083 Y146.5 E.03841
G1 X140.274 Y145.29 E.03841
G1 X140.83 Y144.197 E.03844
G1 X141.655 Y143.372 E.03656
M204 S1000
G1 X141.655 Y142.932 F10800
;WIPE_START
G1 F8640
G1 X142.79 Y142.774 E-.29631
G1 X144 Y142.583 E-.28288
G1 X145.21 Y142.774 E-.28288
G1 X145.549 Y142.947 E-.08793
;WIPE_END
G1 E-.05 F2100
G1 Z.4 F720
G1 X192.367 Y92.724 F10800
G1 Z.2 F720
G1 E1 F2100
M204 S800
;TYPE:Perimeter
G1 F1200
G1 X191.911 Y91.828 E.03153
G1 X191.701 Y90.5 E.04215
G1 X191.911 Y89.172 E.04215
G1 X192.521 Y87.973 E.04219
G1 X193.473 Y87.021 E.0422
G1 X194.672 Y86.411 E.04218
G1 X196 Y86.2 E.04217
G1 X197.328 Y86.411 E.04217
G1 X198.527 Y87.021 E.04218
G1 X199.479 Y87.973 E.0422
G1 X200.089 Y89.172 E.04218
G1 X200.3 Y90.5 E.04217
G1 X200.089 Y91.828 E.04217
G1 X199.479 Y93.027 E.04218
G1 X198.527 Y93.979 E.0422
G1 X197.328 Y94.589 E.04219
G1 X196 Y94.799 E.04215
G1 X194.672 Y94.589 E.04215
G1 X193.473 Y93.979 E.04219
G1 X192.521 Y93.027 E.0422
G1 X192.394 Y92.778 E.00878
M204 S1000
G1 X192.83 Y92.803 F10800
M204 S800
;TYPE:External perimeter
G1 F1200
G1 X192.274 Y91.71 E.03844
G1 X192.083 Y90.5 E.03841
G1 X192.274 Y89.29 E.03841
G1 X192.83 Y88.197 E.03844
G1 X193.697 Y87.33 E.03845
G1 X194.79 Y86.774 E.03844
G1 X196 Y86.582 E.03842
G1 X197.21 Y86.774 E.03842
G1 X198.303 Y87.33 E.03844
G1 X199.17 Y88.197 E.03845
G1 X199.726 Y89.29 E.03844
G1 X199.918 Y90.5 E.03842
G1 X199.726 Y91.71 E.03842
G1 X199.17 Y92.803 E.03844
G1 X198.303 Y93.67 E.03845
G1 X197.21 Y94.226 E.03844
G1 X196 Y94.417 E.03841
G1 X194.79 Y94.226 E.03841
G1 X193.697 Y93.67 E.03844
G1 X192.872 Y92.845 E.03656
M204 S1000
G1 X192.432 Y92.845 F10800
;WIPE_START
G1 F8640
G1 X192.274 Y91.71 E-.29631
G1 X192.083 Y90.5 E-.28288
G1 X192.274 Y89.29 E-.28288
G1 X192.447 Y88.95 E-.08793
;WIPE_END
G1 E-.05 F2100
G1 Z.4 F720
G1 X178.247 Y91.336 F10800
G1 Z.2 F720
G1 E1 F2100
M204 S800
;TYPE:Perimeter
G1 F1200
G1 X178.016 Y92.792 E.04623
G1 X177.192 Y94.409 E.05688
G1 X175.909 Y95.692 E.05689
G1 X174.292 Y96.516 E.05689
G1 X172.5 Y96.799 E.05689
G1 X170.708 Y96.516 E.05689
G1 X169.091 Y95.692 E.05689
G1 X167.808 Y94.409 E.05689
G1 X166.984 Y92.792 E.05689
G1 X166.701 Y91 E.05689
G1 X166.984 Y89.208 E.05689
G1 X167.808 Y87.591 E.05689
G1 X169.091 Y86.308 E.05689
G1 X170.708 Y85.484 E.05688
G1 X172.5 Y85.2 E.0569
G1 X174.292 Y85.484 E.0569
G1 X175.909 Y86.308 E.05688
G1 X177.192 Y87.591 E.05689
G1 X178.016 Y89.208 E.05688
G1 X178.3 Y91 E.0569
G1 X178.256 Y91.277 E.00879
M204 S1000
G1 X177.918 Y91 F10800
M204 S800
;TYPE:External perimeter
G1 F1200
G1 X177.653 Y92.674 E.05315
G1 X176.883 Y94.184 E.05314
G1 X175.684 Y95.383 E.05315
G1 X174.174 Y96.153 E.05314
G1 X172.5 Y96.417 E.05314
G1 X170.826 Y96.153 E.05314
G1 X169.316 Y95.383 E.05314
G1 X168.117 Y94.184 E.05315
G1 X167.347 Y92.674 E.05314
G1 X167.083 Y91 E.05315
G1 X167.347 Y89.326 E.05315
G1 X168.117 Y87.816 E.05314
G1 X169.316 Y86.617 E.05315
G1 X170.826 Y85.847 E.05314
G1 X172.5 Y85.582 E.05315
G1 X174.174 Y85.847 E.05315
G1 X175.684 Y86.617 E.05314
G1 X176.883 Y87.816 E.05315
G1 X177.653 Y89.326 E.05314
G1 X177.909 Y90.941 E.05127
M204 S1000
G1 X178.265 Y91.2 F10800
;WIPE_START
G1 F8640
G1 X177.653 Y92.674 E-.40464
G1 X176.883 Y94.184 E-.39131
G1 X176.411 Y94.656 E-.15405
;WIPE_END
G1 E-.05 F2100
G1 Z.4 F720
G1 X147.154 Y66.352 F10800
G1 Z.2 F720
G1 E1 F2100
M204 S800
;TYPE:Perimeter
G1 F1200
G1 X146.527 Y66.979 E.02778
G1 X145.328 Y67.589 E.04219
G1 X144 Y67.799 E.04215
G1 X142.672 Y67.589 E.04215
G1 X141.473 Y66.979 E.04219
G1 X140.521 Y66.027 E.0422
G1 X139.911 Y64.828 E.04219
G1 X139.701 Y63.5 E.04215
G1 X139.911 Y62.172 E.04215
G1 X140.521 Y60.973 E.04219
G1 X141.473 Y60.021 E.0422
G1 X142.672 Y59.411 E.04218
G1 X144 Y59.2 E.04217
G1 X145.328 Y59.411 E.04217
G1 X146.527 Y60.021 E.04218
G1 X147.479 Y60.973 E.0422
